icon-themes/breeze_svg/cmd/lc_borderdialog.svg

<svg viewBox="0 0 24 24" xmlns="http://www.w3.org/2000/svg"><path d="m11 18c-.552285 0-1 .44772-1 1s.447715 1 1 1 1-.44772 1-1-.447715-1-1-1zm4 0c-.552285 0-1 .44772-1 1s.447715 1 1 1 1-.44772 1-1-.447715-1-1-1zm4 0c-.552285 0-1 .447715-1 1s.447715 1 1 1 1-.447715 1-1-.447715-1-1-1z" fill="#f47750"/><path d="m4 4v2h16v-2zm0 4v1h16v-1zm0 4v2h2v-2zm4 0v2h2v-2zm3 0v2h2v-2zm3 0v2h2v-2zm4 0v2h2v-2zm-14 4v1h16v-1zm0 3v1h1v-1zm3 0v1h1v-1z" fill="#4d4d4d"/></svg>

<svg xmlns="http://www.w3.org/2000/svg" viewBox="0 0 24 24">
 <path 
     style="fill:#f47750" 
     d="M 11 18 C 10.447715 18 10 18.44772 10 19 C 10 19.55228 10.447715 20 11 20 C 11.552285 20 12 19.55228 12 19 C 12 18.44772 11.552285 18 11 18 z M 15 18 C 14.447715 18 14 18.44772 14 19 C 14 19.55228 14.447715 20 15 20 C 15.552285 20 16 19.55228 16 19 C 16 18.44772 15.552285 18 15 18 z M 19 18 C 18.447715 18 18 18.447715 18 19 C 18 19.552285 18.447715 20 19 20 C 19.552285 20 20 19.552285 20 19 C 20 18.447715 19.552285 18 19 18 z "
     />
 <path 
     style="fill:#4d4d4d" 
     d="M 4 4 L 4 6 L 20 6 L 20 4 L 4 4 z M 4 8 L 4 9 L 20 9 L 20 8 L 4 8 z M 4 12 L 4 14 L 6 14 L 6 12 L 4 12 z M 8 12 L 8 14 L 10 14 L 10 12 L 8 12 z M 11 12 L 11 14 L 13 14 L 13 12 L 11 12 z M 14 12 L 14 14 L 16 14 L 16 12 L 14 12 z M 18 12 L 18 14 L 20 14 L 20 12 L 18 12 z M 4 16 L 4 17 L 20 17 L 20 16 L 4 16 z M 4 19 L 4 20 L 5 20 L 5 19 L 4 19 z M 7 19 L 7 20 L 8 20 L 8 19 L 7 19 z "
     />
 </svg>
